X: 5
T: Dartford Camp
%R: march, reel
B: "Twenty Four Country Dances for the Year 1781", Thomas Skillern, ed. p.3 #1
F: http://www.vwml.org/browse/browse-collections-dance-tune-books/browse-skillerns1781#
Z: 2014 John Chambers <jc:trillian.mit.edu>
M: 2/4
L: 1/8
K: A
e |\
aAAB | cccd | e>f ed/c/ | B/A/G/F/ Ee |\
aAAB | c>^dea | gf/e/ B^d | e3 :|
|: B |\
eEEF | G>ABc | d>ec>d | B/A/G/F/ Ee |\
d>edB | c>deE | Fd c/B/A/G/ | A3 :|
%%begintext align
%%   Cast off one Cu. four Hands round with
%% the third .| Cast up again four Hands with
%% the 2d :| 1st three Coupels [sic] double promenade
%% :|. lead down up again and Cast off :|:
%%endtext

%%sep 1 1 500
%%sep 1 1 500
